src/main/resources/img/object/trigger/Triggers.svg

<svg width="16" height="16" version="1.1" viewBox="0 0 16 16"  xmlns="http://www.w3.org/2000/svg"><path d="m1 6v8h7v-7h1.4004l3.5996 2.4316v-3.4316z" fill="#fff"/><path d="m0 3v12h8v-1h-3v-2h3v-1h-3v-2h3v-1h-3v-2h4v1h0.40039l0.59961 0.4043v-1.4043h3v2h-2.1191l1.4805 1h0.63867v0.43164l1 0.67578v-7.1074h-14zm1 3h3v2h-3zm0 3h3v2h-3zm0 3h3v2h-3zm13 1.8926-1.6387 1.1074h1.6387z" fill="#afb1b3"/><path d="m2 0v2h13v8.8l1 0.81194v-11.722z" fill="#afb1b3"/><polygon transform="matrix(.85714 0 0 .88889 2.1429 4.4444)" points="8 13 8 4 15 8.5" fill="#62b543"/></svg>

<svg width="16" height="16" xmlns="http://www.w3.org/2000/svg"><path d="M1 6v8h7V7h1.4L13 9.432V6z" fill="#fff"/><path d="M0 3v12h8v-1H5v-2h3v-1H5V9h3V8H5V6h4v1h.4l.6.404V6h3v2h-2.12l1.481 1h.64v.432l1 .675V3H0zm1 3h3v2H1zm0 3h3v2H1zm0 3h3v2H1zm13 1.893L12.361 15H14z" fill="#afb1b3"/><path d="M2 0v2h13v8.8l1 .812V-.11z" fill="#afb1b3"/><path fill="#62b543" d="M9 16V8l6 4z"/></svg>
